X:1
T:Handshouse Waltz
C:Sarah Gowan August 2007 
R:Waltz
M:3/4
L:1/4
K:G
"G"G2 A|"Bm" B/d/-d2| "D"f2 g/f/ | "Em"d/ e/-e2|
"Am7"g2 a/g/| "Bm7"fdd| "D"d<e f |1"C"e2 D/F/:|2"Em"e2B/A/||
|:"C"G>EG| "D"A2A |"Em"B>GE| "D"d2B/A/|
"Am7"G>EG|"D"A2A| "Em"Bed| "Bm" B2E/F/|
"C"G>EG|"Am7"ABc| "G" dgf|"Em"eBG|
"Am7"A>B c|"Bm"dBG| "D"D>GF|1"C"E2B/A/:|2"Em"E2D/F/|]"(Last) G"G3|]
